svg/300/sharp/travel_luggage_and_bags.svg

<svg xmlns="http://www.w3.org/2000/svg" width="48" height="48" viewBox="0 -960 960 960"><path d="M277.694-100.001v-43.847h-57.693v-556.151h161.923v-143.845H578.46v143.845h161.539v556.151h-57.693v43.847h-45.383v-43.847H323.077v43.847h-45.383Zm149.614-599.998h105.769v-98.461H427.308v98.461ZM480-476.153q56.411 0 111.398-13 54.986-13 103.217-42.846v-122.616h-429.23v122.616q48.231 29.846 103.217 42.846 54.987 13 111.398 13Zm-22.692 89.229v-40.615q-51.384-2.615-99.769-15.923-48.385-13.308-92.154-39.308v293.539h429.23V-482.77q-43.769 26-92.154 39.308t-99.769 15.923v40.615h-45.384Zm22.692 0Zm0-89.229Zm0-6.617Z"/></svg>

<svg xmlns="http://www.w3.org/2000/svg" width="48" height="48" viewBox="0 -960 960 960"><path d="M277.69-100v-43.85H220V-700h161.92v-143.84h196.54V-700H740v556.15h-57.69V-100h-45.39v-43.85H323.08V-100h-45.39Zm149.62-600h105.77v-98.46H427.31V-700ZM480-476.15q56.41 0 111.4-13 54.98-13 103.21-42.85v-122.61H265.39V-532q48.23 29.85 103.21 42.85 54.99 13 111.4 13Zm-22.69 89.23v-40.62q-51.39-2.61-99.77-15.92-48.39-13.31-92.15-39.31v293.54h429.22v-293.54q-43.76 26-92.15 39.31-48.38 13.31-99.77 15.92v40.62h-45.38Zm22.69 0Zm0-89.23Zm0-6.62Z"/></svg>
